X:1
T:Mozambique, 87.87.88.87
T:Mozambique, 87.87.88.87
T:Hubert Platt Main, 1894
T:Public Domain Courtesy of the Cyber Hymnal™
C:Hubert Platt Main, 1894
Z:Public Domain
Z:Courtesy of the Cyber Hymnal™
%%score ( 1 2 ) ( 3 4 )
L:1/8
Q:1/4=87
M:3/4
K:F
V:1 treble 
V:2 treble 
V:3 bass 
V:4 bass 
V:1
 C | [CF]>[CG] [FA]3 [FG] | [FB]>[FA] [Fc]4 | [Fd]>[Fc] [FA]2 F2 | [EG]>[FA] [EG]3 C | %5
 [CF]>[CG] [FA]3 [FG] | [FB]>[FA] [Fc]4 | [Fd]>[Fc] [FA]2 F2 | [EG]>[EA] !fermata!F3 [CF] | %9
 [CE]>[CF] [EG]3 [EB] | [EA]>[EG] F3 [FA] | [EG]>[EA] [EB]3 [Ed] | [Fc]>[CB] [CA]3 C | %13
 [CF]>[CG] [FA]3 [FG] | [FB]>[FA] [Fc]4 | [Fd]>[Fc] [FA]2 F2 | [EG]>[EA] !fermata!F3 |] %17
V:2
 C | x6 | x6 | x4 F2 | x5 C | x6 | x6 | x4 F2 | x2 F3 x | x6 | x2 F3 x | x6 | x5 C | x6 | x6 | %15
 x4 F2 | x2 F3 |] %17
V:3
 [F,A,] | [F,A,]>[F,B,] [F,C]3 [F,B,] | [F,D]>[F,C] [F,A,]4 | B,>[A,C] [F,C]2 [A,,C]2 | %4
 [C,C]>[C,C] [C,C]3 [E,B,] | [F,A,]>[F,B,] [F,C]3 [F,B,] | [F,D]>[F,C] [F,A,]4 | %7
 B,>[A,C] [F,C]2 [A,,C]2 | [C,B,]>[C,C] !fermata![F,A,]3 [F,A,] | [C,G,]>[C,A,] [C,B,]3 [C,D] | %10
 [C,C]>[C,B,] [F,A,]3 [F,C] | [B,C]>[A,C] [G,C]3 [C,B,] | [D,A,]>[E,G,] F,3 [F,A,] | %13
 [F,A,]>[F,B,] [F,C]3 [F,B,] | [F,D]>[F,C] [F,A,]4 | B,>[A,C] [F,C]2 [A,,C]2 | %16
 [C,B,]>[C,C] !fermata![F,A,]3 |] %17
V:4
 x | x6 | x6 | B,3/2 x9/2 | x6 | x6 | x6 | B,3/2 x9/2 | x6 | x6 | x6 | x6 | x2 F,3 x | x6 | x6 | %15
 B,3/2 x9/2 | x5 |] %17

